X:158
T: STILL STILL STILL DIE AUGEN AUFGEMACHT
N: F0290
O: Europa, Mitteleuropa, Deutschland
R: Jugend - Lied, Weihnachten
M: 2/4
L: 1/16
K: F
 | F2z2A2z2 | c4z2
d2 | c2A2B2G2 | F4z2
A2 | G4=B4 | c4z2
A2 | G4=B4 | c4z2
c2 | d3cB2A2 | G4A4 | B4z2
G2 | c3BA2G2 | A4G4 | F4z4

@@@ Tune index: 5589
